X: 17612
T: Hogties
R: reel
M: 4/4
K: Adorian
|:g|edeg A3 g|edef g2 fg|e2 de AAag|edeg BAAB|
edeg A2 gf|edef g2 fg|a2 ge degd|egdg BAA:|
|:e|ae e/e/e a2 ge|dBde g2 fg|ae e/e/e a2 ge|d/d/d eg BAAe|
ae e/e/e a2 ge|dBde g2 fg|a2 ge degd|egdg BAA:|
|:g|eA A/A/A eAgA|A/A/A ef g2 fg|eA A/A/A eAag|egdg BA A2|
eA A/A/A eAgA|A/A/A ef g2 fg|aAge degd|egdg BAA:|
|:g|aA A/A/A a2 ge|dBde g2 fg|aA A/A/A a2 ge|d2 eg BA A/A/A|
aA A/A/A a2 ge|dBde g2 fg|a2 ge degd|egdg BA A:|

